src/user-cross.svg

<svg width="24" height="24" viewBox="0 0 24 24" fill="none" xmlns="http://www.w3.org/2000/svg">
<circle cx="10" cy="9" r="4" stroke="black" stroke-width="1.5"/>
<path d="M4 18C4 15.2386 6.68629 13 10 13C11.5367 13 12.9385 13.4814 14 14.2732" stroke="black" stroke-width="1.5" stroke-linecap="round"/>
<mask id="path-3-outside-1_3779_4248" maskUnits="userSpaceOnUse" x="11" y="11" width="10" height="10" fill="black">
<rect fill="white" x="11" y="11" width="10" height="10"/>
<path d="M16 12C18.2091 12 20 13.7909 20 16C20 18.2091 18.2091 20 16 20C13.7909 20 12 18.2091 12 16C12 13.7909 13.7909 12 16 12ZM17.4834 14.5176C17.3467 14.3812 17.1356 14.3643 16.9805 14.4668L16.918 14.5176L16 15.4346L15.084 14.5176L15.0205 14.4668C14.8653 14.3644 14.6542 14.381 14.5176 14.5176C14.381 14.6542 14.3644 14.8653 14.4668 15.0205L14.5176 15.084L15.4346 16L14.5176 16.918C14.3617 17.0741 14.3617 17.3272 14.5176 17.4834C14.6542 17.6192 14.8656 17.6372 15.0205 17.5352L15.084 17.4834L16 16.5664L16.918 17.4834L16.9805 17.5352C17.1356 17.637 17.347 17.6198 17.4834 17.4834C17.6198 17.347 17.637 17.1356 17.5352 16.9805L17.4834 16.918L16.5664 16L17.4834 15.084C17.6393 14.928 17.6388 14.6739 17.4834 14.5176Z"/>
</mask>
<path d="M16 12C18.2091 12 20 13.7909 20 16C20 18.2091 18.2091 20 16 20C13.7909 20 12 18.2091 12 16C12 13.7909 13.7909 12 16 12ZM17.4834 14.5176C17.3467 14.3812 17.1356 14.3643 16.9805 14.4668L16.918 14.5176L16 15.4346L15.084 14.5176L15.0205 14.4668C14.8653 14.3644 14.6542 14.381 14.5176 14.5176C14.381 14.6542 14.3644 14.8653 14.4668 15.0205L14.5176 15.084L15.4346 16L14.5176 16.918C14.3617 17.0741 14.3617 17.3272 14.5176 17.4834C14.6542 17.6192 14.8656 17.6372 15.0205 17.5352L15.084 17.4834L16 16.5664L16.918 17.4834L16.9805 17.5352C17.1356 17.637 17.347 17.6198 17.4834 17.4834C17.6198 17.347 17.637 17.1356 17.5352 16.9805L17.4834 16.918L16.5664 16L17.4834 15.084C17.6393 14.928 17.6388 14.6739 17.4834 14.5176Z" fill="black"/>
<path d="M17.4834 14.5176L18.1925 13.8124L18.1898 13.8098L17.4834 14.5176ZM16.9805 14.4668L16.4294 13.6323L16.3882 13.6595L16.3499 13.6907L16.9805 14.4668ZM16.918 14.5176L16.2874 13.7415L16.2475 13.7738L16.2112 13.8101L16.918 14.5176ZM16 15.4346L15.2925 16.1413L15.9992 16.8488L16.7067 16.1421L16 15.4346ZM15.084 14.5176L15.7915 13.8108L15.7521 13.7715L15.7087 13.7367L15.084 14.5176ZM15.0205 14.4668L15.6452 13.6859L15.6093 13.6572L15.571 13.632L15.0205 14.4668ZM14.5176 14.5176L13.8105 13.8105L13.8104 13.8105L14.5176 14.5176ZM14.4668 15.0205L13.632 15.571L13.6572 15.6093L13.6859 15.6452L14.4668 15.0205ZM14.5176 15.084L13.7367 15.7087L13.7715 15.7521L13.8108 15.7915L14.5176 15.084ZM15.4346 16L16.1421 16.7067L16.8488 15.9992L16.1413 15.2925L15.4346 16ZM14.5176 16.918L13.8101 16.2112L13.81 16.2114L14.5176 16.918ZM14.5176 17.4834L13.8098 18.1898L13.8124 18.1924L14.5176 17.4834ZM15.0205 17.5352L15.5705 18.3703L15.613 18.3423L15.6524 18.3102L15.0205 17.5352ZM15.084 17.4834L15.7159 18.2584L15.7554 18.2262L15.7915 18.1901L15.084 17.4834ZM16 16.5664L16.7067 15.8589L15.9992 15.1522L15.2925 15.8597L16 16.5664ZM16.918 17.4834L16.2112 18.1909L16.2442 18.2238L16.2802 18.2536L16.918 17.4834ZM16.9805 17.5352L16.3427 18.3053L16.3854 18.3407L16.4317 18.3711L16.9805 17.5352ZM17.4834 17.4834L18.1905 18.1905L18.1905 18.1905L17.4834 17.4834ZM17.5352 16.9805L18.3712 16.4317L18.3407 16.3854L18.3053 16.3427L17.5352 16.9805ZM17.4834 16.918L18.2536 16.2802L18.2238 16.2442L18.1909 16.2112L17.4834 16.918ZM16.5664 16L15.8597 15.2925L15.1522 15.9992L15.8589 16.7067L16.5664 16ZM17.4834 15.084L18.1901 15.7915L18.1905 15.7911L17.4834 15.084ZM16 12V13C17.6569 13 19 14.3431 19 16H20H21C21 13.2386 18.7614 11 16 11V12ZM20 16H19C19 17.6569 17.6569 19 16 19V20V21C18.7614 21 21 18.7614 21 16H20ZM16 20V19C14.3431 19 13 17.6569 13 16H12H11C11 18.7614 13.2386 21 16 21V20ZM12 16H13C13 14.3431 14.3431 13 16 13V12V11C13.2386 11 11 13.2386 11 16H12ZM17.4834 14.5176L18.1898 13.8098C17.7099 13.3308 16.972 13.274 16.4294 13.6323L16.9805 14.4668L17.5315 15.3013C17.2992 15.4547 16.9835 15.4315 16.777 15.2254L17.4834 14.5176ZM16.9805 14.4668L16.3499 13.6907L16.2874 13.7415L16.918 14.5176L17.5486 15.2937L17.6111 15.2429L16.9805 14.4668ZM16.918 14.5176L16.2112 13.8101L15.2933 14.7271L16 15.4346L16.7067 16.1421L17.6247 15.2251L16.918 14.5176ZM16 15.4346L16.7075 14.7278L15.7915 13.8108L15.084 14.5176L14.3765 15.2243L15.2925 16.1413L16 15.4346ZM15.084 14.5176L15.7087 13.7367L15.6452 13.6859L15.0205 14.4668L14.3958 15.2477L14.4593 15.2984L15.084 14.5176ZM15.0205 14.4668L15.571 13.632C15.0298 13.2751 14.2916 13.3294 13.8105 13.8105L14.5176 14.5176L15.2247 15.2247C15.0168 15.4326 14.7007 15.4537 14.47 15.3016L15.0205 14.4668ZM14.5176 14.5176L13.8104 13.8105C13.3294 14.2916 13.2751 15.0298 13.632 15.571L14.4668 15.0205L15.3016 14.47C15.4538 14.7007 15.4325 15.0168 15.2247 15.2247L14.5176 14.5176ZM14.4668 15.0205L13.6859 15.6452L13.7367 15.7087L14.5176 15.084L15.2984 14.4593L15.2477 14.3958L14.4668 15.0205ZM14.5176 15.084L13.8108 15.7915L14.7278 16.7075L15.4346 16L16.1413 15.2925L15.2243 14.3765L14.5176 15.084ZM15.4346 16L14.7271 15.2933L13.8101 16.2112L14.5176 16.918L15.2251 17.6247L16.1421 16.7067L15.4346 16ZM14.5176 16.918L13.81 16.2114C13.264 16.7581 13.2645 17.6435 13.8098 18.1898L14.5176 17.4834L15.2254 16.777C15.4589 17.011 15.4593 17.3901 15.2252 17.6246L14.5176 16.918ZM14.5176 17.4834L13.8124 18.1924C14.2882 18.6657 15.0242 18.7301 15.5705 18.3703L15.0205 17.5352L14.4705 16.7C14.7069 16.5443 15.0201 16.5728 15.2227 16.7743L14.5176 17.4834ZM15.0205 17.5352L15.6524 18.3102L15.7159 18.2584L15.084 17.4834L14.452 16.7084L14.3886 16.7601L15.0205 17.5352ZM15.084 17.4834L15.7915 18.1901L16.7075 17.2731L16 16.5664L15.2925 15.8597L14.3765 16.7767L15.084 17.4834ZM16 16.5664L15.2933 17.2739L16.2112 18.1909L16.918 17.4834L17.6247 16.7759L16.7067 15.8589L16 16.5664ZM16.918 17.4834L16.2802 18.2536L16.3427 18.3053L16.9805 17.5352L17.6183 16.765L17.5558 16.7132L16.918 17.4834ZM16.9805 17.5352L16.4317 18.3711C16.9745 18.7274 17.7116 18.6694 18.1905 18.1905L17.4834 17.4834L16.7763 16.7763C16.9823 16.5703 17.2968 16.5466 17.5292 16.6992L16.9805 17.5352ZM17.4834 17.4834L18.1905 18.1905C18.6694 17.7116 18.7274 16.9745 18.3712 16.4317L17.5352 16.9805L16.6992 17.5292C16.5466 17.2968 16.5702 16.9823 16.7763 16.7763L17.4834 17.4834ZM17.5352 16.9805L18.3053 16.3427L18.2536 16.2802L17.4834 16.918L16.7132 17.5558L16.765 17.6183L17.5352 16.9805ZM17.4834 16.918L18.1909 16.2112L17.2739 15.2933L16.5664 16L15.8589 16.7067L16.7759 17.6247L17.4834 16.918ZM16.5664 16L17.2731 16.7075L18.1901 15.7915L17.4834 15.084L16.7767 14.3765L15.8597 15.2925L16.5664 16ZM17.4834 15.084L18.1905 15.7911C18.7389 15.2427 18.7339 14.3568 18.1925 13.8124L17.4834 14.5176L16.7743 15.2227C16.5438 14.9909 16.5398 14.6134 16.7763 14.3769L17.4834 15.084Z" fill="white" mask="url(#path-3-outside-1_3779_4248)"/>
</svg>

<svg xmlns="http://www.w3.org/2000/svg" width="24" height="24" fill="none"><circle cx="10" cy="9" r="4" stroke="#000" stroke-width="1.5"/><path stroke="#000" stroke-linecap="round" stroke-width="1.5" d="M4 18c0-2.761 2.686-5 6-5 1.537 0 2.938.481 4 1.273"/><mask id="user-cross_svg__a" width="10" height="10" x="11" y="11" fill="#000" maskUnits="userSpaceOnUse"><path fill="#fff" d="M11 11h10v10H11z"/><path d="M16 12a4 4 0 1 1 0 8 4 4 0 0 1 0-8m1.483 2.518a.4.4 0 0 0-.503-.051l-.062.05-.918.918-.916-.917-.063-.051a.4.4 0 0 0-.554.553l.05.064.918.916-.917.918a.4.4 0 0 0 .502.617l.064-.052.916-.917.918.917.063.052a.401.401 0 0 0 .554-.555l-.052-.062-.917-.918.917-.916a.4.4 0 0 0 0-.566"/></mask><path fill="#000" d="M16 12a4 4 0 1 1 0 8 4 4 0 0 1 0-8m1.483 2.518a.4.4 0 0 0-.503-.051l-.062.05-.918.918-.916-.917-.063-.051a.4.4 0 0 0-.554.553l.05.064.918.916-.917.918a.4.4 0 0 0 .502.617l.064-.052.916-.917.918.917.063.052a.401.401 0 0 0 .554-.555l-.052-.062-.917-.918.917-.916a.4.4 0 0 0 0-.566"/><path fill="#fff" d="m17.483 14.518.71-.706-.003-.002zm-.503-.051-.55-.835-.042.027-.038.032zm-.062.05-.63-.775-.04.032-.037.036zm-.918.918-.707.706.706.708.708-.707zm-.916-.917.707-.707-.039-.04-.043-.034zm-.063-.051.624-.781-.036-.029-.038-.025zm-.503.05-.708-.707zm-.051.504-.835.55.025.038.029.036zm.05.063-.78.625.034.043.04.04zm.918.916.707.707.707-.708-.708-.707zm-.917.918-.708-.707zm0 .565-.708.707.002.002zm.502.052.55.835.043-.028.04-.032zm.064-.052.632.775.04-.032.035-.036zm.916-.917.707-.707-.708-.707-.707.708zm.918.917-.707.708.033.033.036.03zm.063.052-.638.77.042.036.047.03zm.502-.052.707.707zm.052-.503.836-.548-.03-.047-.036-.042zm-.052-.062.77-.638-.03-.036-.032-.033zM16.566 16l-.706-.707-.708.706.707.708zm.917-.916.707.707zM16 12v1a3 3 0 0 1 3 3h2a5 5 0 0 0-5-5zm4 4h-1a3 3 0 0 1-3 3v2a5 5 0 0 0 5-5zm-4 4v-1a3 3 0 0 1-3-3h-2a5 5 0 0 0 5 5zm-4-4h1a3 3 0 0 1 3-3v-2a5 5 0 0 0-5 5zm5.483-1.482.707-.708a1.4 1.4 0 0 0-1.76-.178l.55.835.552.834a.6.6 0 0 1-.755-.076zm-.503-.051-.63-.776-.063.05.631.777.63.776.063-.051zm-.062.05-.707-.707-.918.917.707.708.707.707.918-.917zm-.918.918.707-.707-.916-.917-.707.707-.707.706.915.917zm-.916-.917.625-.781-.064-.051-.624.78-.625.782.063.05zm-.063-.051.55-.835a1.4 1.4 0 0 0-1.76.178l.707.708.707.707a.6.6 0 0 1-.755.077zm-.503.05-.708-.707a1.4 1.4 0 0 0-.178 1.761l.835-.55.835-.551a.6.6 0 0 1-.077.755zm-.051.504-.781.624.05.064.782-.625.78-.625-.05-.063zm.05.063-.706.707.917.916.707-.707.706-.707-.917-.916zm.918.916-.708-.707-.917.918.708.707.707.707.917-.918zm-.917.918-.708-.707a1.4 1.4 0 0 0 0 1.979l.708-.707.707-.706a.6.6 0 0 1 0 .848zm0 .565-.706.71a1.4 1.4 0 0 0 1.758.177l-.55-.835-.55-.835a.6.6 0 0 1 .753.074zm.502.052.632.775.064-.052-.632-.775-.632-.775-.063.052zm.064-.052.707.707.916-.917-.707-.707-.707-.706-.916.917zm.916-.917-.707.708.918.917.707-.708.707-.707-.918-.917zm.918.917-.638.77.063.052.637-.77.638-.77-.062-.052zm.063.052-.55.836c.543.356 1.28.298 1.76-.18l-.708-.708-.707-.707a.6.6 0 0 1 .753-.077zm.502-.052.707.707a1.4 1.4 0 0 0 .181-1.758l-.836.549-.836.548a.6.6 0 0 1 .077-.753zm.052-.503.77-.637-.051-.063-.77.638-.77.638.051.062zm-.052-.062.708-.707-.917-.918-.708.707-.707.707.917.918zM16.566 16l.707.707.917-.916-.707-.707-.706-.707-.917.915zm.917-.916.707.707a1.4 1.4 0 0 0 .002-1.979l-.709.706-.709.705a.6.6 0 0 1 .002-.846z" mask="url(#user-cross_svg__a)"/></svg>
